icons/poll-outline.svg

<svg xmlns="http://www.w3.org/2000/svg" width="24" height="24" viewBox="0 0 24 24">
    <path fill="#3A3A47" fill-rule="evenodd" d="M19 20c.667 0 1 .334 1 1 0 .667-.333 1-1 1H5c-.667 0-1-.333-1-1 0-.666.333-1 1-1h14zM13.004 2C14.335 2.005 15 2.67 15 4v6H17c1.333 0 2 .668 2 2.004v4c0 1.33-.667 1.998-2 2.002C15 18.01 7.334 18 7 18c-1.333 0-2-.667-2-2V8c0-1.33.667-1.996 2-2h2.001V4c0-1.334.666-2 1.996-2h2.007zM9 8H7v8h2V8zm4-4h-2v12h2V4zm4 8h-2v4h2v-4z"/>
</svg>

<svg width="24" height="24" viewBox="0 0 24 24" fill="none" xmlns="http://www.w3.org/2000/svg">
<path fill-rule="evenodd" clip-rule="evenodd" d="M5 8C5 6.672 5.667 6.005 7 6H9.001V4C9.001 2.667 9.667 2 10.997 2H13.004C14.335 2.005 15 2.67 15 4V10H17C18.333 10 19 10.668 19 12.004V16.004C19 17.334 18.333 18.002 17 18.006C15 18.01 7.334 18 7 18C5.667 18 5 17.333 5 16V8ZM7 8V16H9V8H7ZM11 4V16H13V4H11ZM15 12V16H17V12H15ZM5 20H19C19.667 20 20 20.334 20 21C20 21.667 19.667 22 19 22H5C4.333 22 4 21.667 4 21C4 20.334 4.333 20 5 20Z" fill="#3A3A47"/>
</svg>
